src/fonts/icomoon/icons/sort.svg

<!-- Generated by IcoMoon.io -->
<svg version="1.1" xmlns="http://www.w3.org/2000/svg" width="1097" height="1024" viewBox="0 0 1097 1024">
<title></title>
<g id="icomoon-ignore">
</g>
<path d="M265.527 29.143h-251.188v107.006h251.188v-107.006zM372.835 205.214h-358.495v107.006h358.495v-107.006zM14.339 381.323v107.004h465.803v-107.004h-465.803zM587.451 557.392h-573.111v107.008h573.111v-107.008zM14.339 733.499v107.008h680.419v-107.008h-680.419zM980.915 909.572h-966.576v107.004h966.576v-107.004zM948.22 99.589h-114.271v487.62l-66.768-82.348-78.486 96.794 202.39 249.6 202.39-249.604-78.486-96.79-66.768 82.348v-487.62z"></path>
</svg>

<svg xmlns="http://www.w3.org/2000/svg" width="1097" height="1024"><path d="M265.527 29.143H14.339v107.006h251.188V29.143zm107.308 176.071H14.34V312.22h358.495V205.214zM14.339 381.323v107.004h465.803V381.323H14.339zm573.112 176.069H14.34V664.4h573.111V557.392zM14.339 733.499v107.008h680.419V733.499H14.339zm966.576 176.073H14.339v107.004h966.576V909.572zM948.22 99.589H833.949v487.62l-66.768-82.348-78.486 96.794 202.39 249.6 202.39-249.604-78.486-96.79-66.768 82.348V99.589z"/></svg>
